X:35
T:The Glorious Ninth
S:Steve Beech
Z:robin.beech@mcgill.ca
R:reel
M:4/4
L:1/8
K:G
BGBd f3f | e3e dcBA | BGBd g2g2 | agfe dcBc |
BGBd fBdf | e2ee dcBA | BGBd g2gg | agfe d4 ::
egfg dgfg | dedc BGBd | eAce dGBd | cBAG A3d |
egfg dgfg | d2dc BGBd | eAce d^cdg |1 agfe d4 :|2 agfe dcBc |]
